X:1
T:Terra tremuit - Carturan
T:James Gibb editions
%%score { 1 | 2 } 3
L:1/8
Q:1/4=100
M:4/4
K:C
V:1 treble nm="Soprano I" snm="S"
V:2 treble 
V:3 treble nm="Alto" snm="A"
V:1
"^Terra tremuit""^Carlo Carturan\n(1858-1936)""^allegro"!f! e6 e2 | d3 e"^," f4 | (B4 c2) e2 | %3
w: Ter- ra|tre- mu- it,|ter\- * ra|
 B3 c c4 |!p! (c4 f2) e2 | d4"^," g2 f2 |[M:4/4] e8 | d8 | z8 | z8 | (c4 f2) e2 | d2 B2 c2 de | %12
w: tre- mu- it,|et * qui-|e- vit, qui-|e-|vit,|||dum * re-|sur- ge- ret in ju-|
 f4 d4 |"^," e6!ff! e^f | g4 e4 | ^f8 | (g4 d4) | =f8 | (d2 e2 f4) |"^," e4 c2 c2 | d4"^," c2 cc | %21
w: di- ci-|o, in ju-|di- ci-|o,|De\- *|us,|De\- * *|us, Al- le-|lu- ia, Al- le-|
 f4"^," e2 ee | d8 | !fermata!c8 |] %24
w: lu- ia, Al- le-|lu-|ia.|
V:2
!f! c6 c2 | A3 A"^," A4 | G6 G2 | ^G3 A A4 |!p! A6 A2 | B4"^," B2 B2 |[M:4/4] c8 | B8 | z8 | %9
w: Ter- ra|tre- mu- it,|ter- ra|tre- mu- it,|et qui-|e- vit, qui-|e-|vit,||
 (G4 c2) B2 | A2 A2 A2 A2 | A2 ^G2 A2 z2 | A4 B4 | G3 G"^," c4 |!ff! B4 B4 | A3 A A4 | z8 | d4 A4 | %18
w: dum * re-|sur- ge- ret, re-|sur- ge- ret|in ju-|di- ci- o,|in ju-|di- ci- o,||De- us,|
 (B4 A2 B2) |"^," c4 G2 G2 | A4"^," G2 GG | c4"^," B2 cc | (c4 B4) | !fermata!c8 |] %24
w: De\- * *|us, Al- le-|lu- ia, Al- le-|lu- ia, Al- le-|lu\- *|ia.|
V:3
!f! (C3 E A2) G2 | F3 E"^," D4 | (G2 F2 E2) C2 | E3 A, A,4 |!p! (F2 E2 D2) (EF) | %5
w: Ter\- * * ra|tre- mu- it,|ter\- * * ra|tre- mu- it,|et * * qui\- *|
 (G2 F2)"^," E2 D2 |[M:4/4] (C3 D E2 ^F2) | G8 | (C4 G2) =F2 | E2 (CD) E2 E2 | (F2 E2 D2 C2 | %11
w: e\- * vit, qui-|e\- * * *|vit,|dum * re-|sur- ge\- * ret, re-|sur\- * * *|
 B,2) E2 A,2 z2 | D4 G4 | C3 C"^," A,4 |!ff! E4 G4 | D3 D D4 | z8 | z8 | (G4 D4) | C4 E2 E2 | %20
w: * ge- ret|in ju-|di- ci- o,|in ju-|di- ci- o,|||De\- *|us, Al- le-|
 F4 E2 EE | A4 ^G2 AA | (F4 G4) | !fermata!C8 |] %24
w: lu- ia, Al- le-|lu- ia, Al- le-|lu\- *|ia.|

